X:1
T:Partition sans titre
C:Compositeur / Arrangeur
L:1/8
M:4/4
I:linebreak $
K:G
V:1 treble nm="Violon" snm="Vln."
V:1
"Em" B2 EB"D7" cBAG |"Em" BEEF GABG |"D7" A2 AB cBAF | DFAc"Em" BAGA |"Em" B2 EB"D7" cBAG | %5
"Em" BEEF GABG |"D" A2 AB cBAF |1"Em" BF"D"AF"Em" E3 A :|2"Em" BF"D"AF"Em" E2 AB |: %9
"D7" c2 cB cBAc |"Em" BcBA GABG |"D7" A2 AB cBAF | DFAc"Em" BGAB |"D7" c2 cB cBAc |"Em" BcBA GABG | %15
"D7" A2 AB cBAF |1"Em" BF"D"AF"Em" E2 AB :|2"Em" BF"D"AF"Em" E3 A |] %18
